X:1
T:Cumberland Reel
C:Traditional
M:6/8
L:1/8
Q:3/8=100
K:D
A|f2e d2B|A2F G2A|B2A F2G|A2B c2d|
e2d B2G|A2F d2B|cBA GAB|d3-d3|]
